img/trainers/vk.svg

<svg width="24" height="24" viewBox="0 0 24 24" fill="none" xmlns="http://www.w3.org/2000/svg">
<g id="vk">
<rect id="back" x="0.5" y="0.5" width="23" height="23" stroke="#0266C1" stroke-opacity="0.1"/>
<path id="icon/vk" d="M18.9258 15.2249C18.9088 15.1883 18.893 15.1579 18.8783 15.1336C18.6354 14.6955 18.1712 14.1577 17.4861 13.5201L17.4716 13.5055L17.4643 13.4983L17.457 13.491H17.4497C17.1387 13.1941 16.9418 12.9945 16.8593 12.8923C16.7084 12.6976 16.6746 12.5005 16.7571 12.3008C16.8154 12.1499 17.0342 11.8313 17.4131 11.3446C17.6125 11.0866 17.7703 10.8798 17.8869 10.724C18.7276 9.60458 19.0921 8.88922 18.9803 8.5777L18.9369 8.5049C18.9077 8.46107 18.8324 8.42098 18.711 8.38441C18.5894 8.34793 18.434 8.34189 18.2444 8.36621L16.1452 8.38073C16.1111 8.36866 16.0626 8.36979 15.9993 8.38441C15.9361 8.39904 15.9045 8.40638 15.9045 8.40638L15.868 8.42466L15.839 8.44663C15.8147 8.46115 15.788 8.4867 15.7588 8.52321C15.7297 8.5596 15.7055 8.6023 15.6861 8.65096C15.4575 9.23987 15.1977 9.78741 14.906 10.2935C14.7262 10.5954 14.5611 10.8569 14.4103 11.0784C14.2597 11.2998 14.1333 11.4629 14.0313 11.5674C13.9292 11.6721 13.837 11.7559 13.7543 11.8193C13.6716 11.8826 13.6085 11.9094 13.5649 11.8996C13.5211 11.8898 13.4798 11.8801 13.4408 11.8704C13.3728 11.8266 13.3181 11.767 13.2769 11.6915C13.2355 11.6161 13.2076 11.5211 13.193 11.4068C13.1785 11.2923 13.17 11.1939 13.1675 11.1111C13.1652 11.0284 13.1663 10.9115 13.1712 10.7606C13.1763 10.6097 13.1785 10.5076 13.1785 10.454C13.1785 10.269 13.1821 10.0683 13.1894 9.85171C13.1967 9.63513 13.2027 9.46353 13.2076 9.33711C13.2126 9.21056 13.2149 9.07668 13.2149 8.93553C13.2149 8.79438 13.2063 8.68369 13.1894 8.60335C13.1726 8.52311 13.1469 8.44522 13.113 8.36971C13.0789 8.29428 13.0291 8.23593 12.9636 8.1945C12.898 8.15313 12.8165 8.1203 12.7194 8.0959C12.4618 8.03753 12.1338 8.00595 11.7353 8.00104C10.8315 7.99132 10.2507 8.04978 9.99317 8.17632C9.89112 8.22979 9.79878 8.30284 9.71621 8.39526C9.62872 8.50237 9.61651 8.56082 9.67968 8.57044C9.97129 8.61419 10.1777 8.71885 10.2992 8.88431L10.343 8.97199C10.3771 9.03526 10.4111 9.14725 10.4451 9.30783C10.4791 9.46842 10.501 9.64605 10.5107 9.84064C10.5349 10.196 10.5349 10.5002 10.5107 10.7532C10.4863 11.0064 10.4634 11.2034 10.4414 11.3446C10.4195 11.4857 10.3867 11.6001 10.343 11.6877C10.2992 11.7753 10.2701 11.8288 10.2555 11.8483C10.2409 11.8677 10.2288 11.88 10.2191 11.8848C10.156 11.909 10.0903 11.9213 10.0223 11.9213C9.95418 11.9213 9.87162 11.8872 9.77445 11.8191C9.6773 11.7509 9.57648 11.6573 9.47198 11.538C9.36749 11.4187 9.24964 11.252 9.11838 11.0379C8.98723 10.8238 8.85115 10.5707 8.71023 10.2787L8.59363 10.0669C8.52074 9.93068 8.42117 9.7323 8.29481 9.47197C8.16839 9.21154 8.05664 8.95962 7.95949 8.71627C7.92066 8.61406 7.86232 8.53625 7.78458 8.48271L7.7481 8.46074C7.72385 8.44131 7.68491 8.42067 7.6315 8.39868C7.57801 8.37672 7.5222 8.36097 7.46384 8.35127L5.4666 8.3658C5.26251 8.3658 5.12403 8.41211 5.05111 8.50459L5.02193 8.54835C5.00735 8.57271 5 8.61163 5 8.6652C5 8.71875 5.01458 8.78446 5.04376 8.86227C5.33532 9.54858 5.65239 10.2105 5.99496 10.848C6.33753 11.4856 6.63522 11.9992 6.88784 12.3883C7.14052 12.7777 7.39807 13.1452 7.6605 13.4907C7.92293 13.8363 8.09665 14.0577 8.18164 14.155C8.26673 14.2525 8.33357 14.3254 8.38216 14.3741L8.56442 14.5492C8.68104 14.6661 8.8523 14.806 9.07828 14.969C9.3043 15.1321 9.55453 15.2927 9.82908 15.451C10.1037 15.609 10.4232 15.738 10.7877 15.8378C11.1521 15.9376 11.5068 15.9777 11.8519 15.9584H12.6902C12.8602 15.9437 12.989 15.8901 13.0765 15.7977L13.1055 15.7611C13.125 15.7321 13.1433 15.6869 13.1601 15.6262C13.1772 15.5654 13.1857 15.4984 13.1857 15.4255C13.1807 15.2162 13.1966 15.0276 13.2329 14.8597C13.2693 14.6919 13.3107 14.5653 13.357 14.4801C13.4033 14.395 13.4555 14.3231 13.5136 14.2649C13.5719 14.2065 13.6134 14.1711 13.6378 14.159C13.662 14.1467 13.6813 14.1384 13.6959 14.1334C13.8125 14.0945 13.9498 14.1322 14.1079 14.2467C14.2658 14.361 14.414 14.5023 14.5525 14.6701C14.691 14.8381 14.8575 15.0266 15.0518 15.2358C15.2463 15.4451 15.4163 15.6007 15.562 15.7031L15.7078 15.7907C15.8051 15.8492 15.9314 15.9027 16.087 15.9514C16.2422 16 16.3782 16.0122 16.495 15.9878L18.361 15.9587C18.5456 15.9587 18.6892 15.9281 18.7911 15.8674C18.8931 15.8065 18.9538 15.7395 18.9733 15.6666C18.9928 15.5936 18.9939 15.5108 18.977 15.4183C18.9597 15.3259 18.9427 15.2614 18.9258 15.2249Z" fill="#2D383F"/>
</g>
</svg>

<svg width="24" height="24" fill="none" xmlns="http://www.w3.org/2000/svg"><path stroke="#0266C1" stroke-opacity=".1" d="M.5.5h23v23H.5z"/><path d="M18.926 15.225a.964.964 0 0 0-.048-.091c-.243-.439-.707-.976-1.392-1.614l-.014-.014-.008-.008-.007-.007h-.007a8.429 8.429 0 0 1-.59-.599c-.152-.194-.185-.391-.103-.591.058-.151.277-.47.656-.956.2-.258.357-.465.474-.621.84-1.12 1.205-1.835 1.093-2.146l-.043-.073c-.03-.044-.105-.084-.226-.12a1.146 1.146 0 0 0-.467-.019l-2.099.015a.272.272 0 0 0-.146.003l-.095.022-.036.019-.029.022a.325.325 0 0 0-.08.076.499.499 0 0 0-.073.128 11.924 11.924 0 0 1-.78 1.643c-.18.301-.345.563-.496.784-.15.222-.277.385-.379.49a2.654 2.654 0 0 1-.277.251c-.082.064-.146.09-.19.08a5.403 5.403 0 0 1-.123-.029.484.484 0 0 1-.164-.178.802.802 0 0 1-.084-.285 3.16 3.16 0 0 1-.022-.646c.005-.151.008-.253.008-.307 0-.185.003-.386.01-.602l.019-.515c.005-.126.007-.26.007-.401 0-.142-.009-.252-.026-.333a1.14 1.14 0 0 0-.076-.233.393.393 0 0 0-.15-.175.841.841 0 0 0-.244-.1 4.844 4.844 0 0 0-.984-.094c-.903-.01-1.484.049-1.742.175a.982.982 0 0 0-.277.22c-.087.106-.1.165-.036.174.291.044.498.149.62.314l.043.088c.034.063.068.175.102.336.034.16.056.338.066.533.024.355.024.66 0 .912-.025.253-.048.45-.07.592a1.185 1.185 0 0 1-.186.503.126.126 0 0 1-.036.037.546.546 0 0 1-.197.036c-.068 0-.15-.034-.248-.102a1.75 1.75 0 0 1-.302-.281 3.761 3.761 0 0 1-.354-.5 8.727 8.727 0 0 1-.408-.76l-.116-.211a18.216 18.216 0 0 1-.3-.595c-.126-.26-.237-.512-.335-.756a.481.481 0 0 0-.174-.233l-.037-.022a.774.774 0 0 0-.284-.11l-1.997.015c-.204 0-.343.046-.416.139l-.03.043A.236.236 0 0 0 5 8.665c0 .054.015.12.044.197.291.687.608 1.348.951 1.986.343.638.64 1.151.893 1.54.253.39.51.757.772 1.103.263.345.437.567.522.664.085.098.152.17.2.22l.182.174c.117.117.288.257.514.42.226.163.477.324.751.482.275.158.594.287.959.387.364.1.719.14 1.064.12h.838c.17-.014.299-.068.386-.16l.03-.037a.483.483 0 0 0 .054-.135.74.74 0 0 0 .026-.2c-.005-.21.01-.398.047-.566.036-.168.078-.295.124-.38a.934.934 0 0 1 .28-.321.47.47 0 0 1 .059-.026c.117-.038.254 0 .412.114.158.114.306.255.444.423.139.168.306.357.5.566.194.21.364.365.51.467l.146.088c.097.058.223.112.379.16.155.049.291.061.408.037l1.866-.03c.185 0 .328-.03.43-.09.102-.062.163-.129.182-.201a.565.565 0 0 0 .004-.249.922.922 0 0 0-.051-.193Z" fill="#2D383F"/></svg>
